X:91
T:The Lady at the Churn
B:Terry "Cuz" Teahan "Sliabh Luachra on Parade" 1980
Z:Patrick Cavanagh
M:4/4
L:1/8
R:Barndance
K:G
| GABG d2BG | dcBA Bded | edge d2cA | ABc/B/A edBA | 
GABG d2BG | dcBA Bded | edge d2BA | ABc/B/A BGG2 :| 
| eBB/c/B eBgB | eBgB d2BG | ABc/B/A eABA | egfd edBA | 
eBB/c/B eBgB | eBgB d2BG | ABc/B/A eABA | gedB BAA2 :|| 

